fs/slide_multiple_24_filled.svg

<svg viewBox="0 0 24 24" fill="none" xmlns="http://www.w3.org/2000/svg" height="1em" width="1em">
  <path d="M2 7.75C2 5.12665 4.12665 3 6.75 3H16.75C17.9926 3 19 4.00736 19 5.25V5.5H7.75C5.95507 5.5 4.5 6.95507 4.5 8.75V17H4.25C3.00736 17 2 15.9926 2 14.75V7.75ZM7.75 6.5C6.50736 6.5 5.5 7.50736 5.5 8.75V18.25C5.5 19.4926 6.50736 20.5 7.75 20.5H19.75C20.9926 20.5 22 19.4926 22 18.25V8.75C22 7.50736 20.9926 6.5 19.75 6.5H7.75Z" fill="#212121"/>
</svg>

<svg viewBox="0 0 24 24" fill="none" xmlns="http://www.w3.org/2000/svg" height="1em" width="1em">
  <path d="M2 7.75A4.75 4.75 0 0 1 6.75 3h10A2.25 2.25 0 0 1 19 5.25v.25H7.75A3.25 3.25 0 0 0 4.5 8.75V17h-.25A2.25 2.25 0 0 1 2 14.75v-7ZM7.75 6.5A2.25 2.25 0 0 0 5.5 8.75v9.5a2.25 2.25 0 0 0 2.25 2.25h12A2.25 2.25 0 0 0 22 18.25v-9.5a2.25 2.25 0 0 0-2.25-2.25h-12Z" fill="#212121"/>
</svg>
